Adwaita++/apps/16/applications-3D.svg

<svg height="16" width="16" xmlns="http://www.w3.org/2000/svg">
  <path d="m.5 1.4065844v2.5112076h4.0355003v2.8444848h-2.7127239v2.38203h2.7127239v2.8444852h-4.0355003v2.511208h5.2911041 1.2556038 4.4256151l.322943-.219602s.592419-.40824 1.250437-.973997c.658017-.565759 1.419411-1.206632 1.842069-2.227018.816304-1.9707318.816304-4.2814505 0-6.2521826-.422658-1.0203852-1.184052-1.6612587-1.842069-2.2270173-.658018-.5657585-1.250437-.9739971-1.250437-.9739971l-.322943-.2196016h-4.4256151-1.2556038zm6.5467079 2.5112076h3.6040471c.170977.1230195.359515.2473125.756979.5890485.545445.4689691 1.105416 1.1496308 1.160013 1.2814391.533574 1.2881628.533574 3.0418615 0 4.3300244-.0546.131808-.614568.81247-1.160013 1.281439-.397464.341736-.586002.46603-.756979.589049h-3.6040471z" fill="#444"/>
</svg>

<svg xmlns="http://www.w3.org/2000/svg" width="16" height="16" version="1.1">
 <path fill="#444" d="M 0.5,1.4065844 V 3.917792 H 4.5355003 V 6.7622768 H 1.8227764 v 2.38203 H 4.5355003 V 11.988792 H 0.5 V 14.5 h 5.2911041 1.2556038 4.4256151 l 0.322943,-0.219602 c 0,0 0.592419,-0.40824 1.250437,-0.973997 0.658017,-0.565759 1.419411,-1.206632 1.842069,-2.227018 0.816304,-1.9707318 0.816304,-4.2814505 0,-6.2521826 C 14.465114,3.8068152 13.70372,3.1659417 13.045703,2.6001831 12.387685,2.0344246 11.795266,1.626186 11.795266,1.626186 L 11.472323,1.4065844 H 7.0467079 5.7911041 Z M 7.0467079,3.917792 h 3.6040471 c 0.170977,0.1230195 0.359515,0.2473125 0.756979,0.5890485 0.545445,0.4689691 1.105416,1.1496308 1.160013,1.2814391 0.533574,1.2881628 0.533574,3.0418615 0,4.3300244 -0.0546,0.131808 -0.614568,0.81247 -1.160013,1.281439 -0.397464,0.341736 -0.586002,0.46603 -0.756979,0.589049 H 7.0467079 Z"/>
</svg>
